X: 26445
T: Messenger, The
R: hornpipe
M: 4/4
K: Eminor
|:z|E2 gf (3efg dB|cEED (3EFG Ac|BcBA GE~E2|~e2de BAGF|
Eggf (3efg dB|cEED (3EFG Ac|BE~E2 cE~E2|eBdf e3:|
|:f|g2 ag fd~d2|efed Bdef|g2ag fdef|ge~e2 a2ba|
geeg fddf|efed BAGA|BE~E2 cE~E2|eBdf e3:|

